X:1546
L:1/4
M:3/4
K:G
 D | B2 A/G/ | D2 D | E2 C/E/ | D2 D | B2 A/G/ | D2 G | F A2 | A2 D | B2 A/G/ | D2 D | E C E | 
 D2 D | E C G | F D A | A3 | G2 D ||

